X:201
T:Cock of the North
C:Traditional Scottish
Q:3/8=112
M:6/8
L:1/8
R:Jig
%%MIDI bassprog 32    Acoustic Bass
%%MIDI chordprog 21   Accordion
%%MIDI program 21     Accordion
%%MIDI ratio 3 1
K:G
P:A
|: d2c | "G"B2B B>AG | "G"B>cd "C"e2d | "G"B2B "Em"B>AG | "Am"A3 "D"d2c |\
"G"B2B B>AG | "G"B>cd "C"e2d | "G"B2B "D"A>BA | "G"G3 :|
P:B
|: z2d | "G"g2d "C"e2d | "G"g2d "C"e2d | "G"B2B "Em"B>AG | "Am"A3 "D"z2d |\
"G"g2d "C"e2d | "G"g2d "C"e2d | "G"B2B "D"A>BA | "G"G3 :|
N:Replace by blank line and X field
T:Hundred Pipers
T:Wi' a Hundred Pipers an' a'
C:Traditional Scottish
S:Colin Hume's website,  colinhume.com  - chords can also be printed below the stave.
Q:3/8=112
M:6/8
R:Jig
K:A
P:A
|: A/B/ | "A"c2E E>FE | "D"F2A A2f | "A"e2c c>BA | "E"c2B B2A/B/ |\
"A"c2E E>FE | "D"F2A A2f | "A"e2c "E"B>cB | "A"A3- A2 :|
P:B
|: c/d/ | "A"e2e e>ce | "D"f2a a2f | "A"e2c c>BA | "E"c2B B2c/d/ |\
"A"e2e e>ce | "D"f2a a2f | "A"e2c "E"B>cB | "A"A3- A2 :|

